public/icons/heart.svg

<svg width="24" height="24" viewBox="0 0 24 24" fill="none" xmlns="http://www.w3.org/2000/svg">
<g clip-path="url(#clip0_1_1303)">
<path d="M12.0414 0.90295L12.0414 0.903052L12.0469 0.90295C15.017 0.848226 17.8336 1.94694 19.979 3.999L20.0827 3.8906L19.979 3.999C22.1276 6.054 23.3478 8.8203 23.4159 11.7893L23.4161 11.8013L23.4159 11.8134C23.3478 14.7824 22.1276 17.5487 19.979 19.6037C17.8849 21.6066 15.1516 22.7015 12.2597 22.7016C12.1868 22.7016 12.1143 22.701 12.041 22.6996L12.041 22.6995H12.0382H12.0216C10.699 22.6995 9.39794 22.4788 8.15125 22.0432L8.08341 22.0195L8.02242 22.0575L5.78363 23.4533L5.78361 23.4533C5.62646 23.5513 5.44824 23.6019 5.26694 23.6019C5.20022 23.6019 5.1329 23.595 5.0659 23.5811C4.617 23.4878 4.28779 23.0804 4.28779 22.6102V19.83V19.7629L4.2378 19.7182C1.98529 17.7032 0.688174 14.8284 0.672461 11.8045V11.7968L0.672597 11.7893C0.6726 11.7892 0.672602 11.7891 0.672605 11.789C0.740699 8.82009 1.96095 6.05393 4.10942 3.999C6.25488 1.94709 9.07025 0.84788 12.0414 0.90295ZM8.34909 20.9995L8.34912 20.9995C9.52907 21.4315 10.7648 21.6506 12.0216 21.6506H12.0217H12.0217H12.0218H12.0218H12.0218H12.0219H12.0219H12.022H12.022H12.022H12.0221H12.0221H12.0222H12.0222H12.0223H12.0223H12.0223H12.0224H12.0224H12.0225H12.0225H12.0225H12.0226H12.0226H12.0227H12.0227H12.0227H12.0228H12.0228H12.0229H12.0229H12.023H12.023H12.023H12.0231H12.0231H12.0232H12.0232H12.0232H12.0233H12.0233H12.0234H12.0234H12.0234H12.0235H12.0235H12.0236H12.0236H12.0237H12.0237H12.0237H12.0238H12.0238H12.0239H12.0239H12.0239H12.024H12.024H12.0241H12.0241H12.0241H12.0242H12.0242H12.0243H12.0243H12.0244H12.0244H12.0244H12.0245H12.0245H12.0246H12.0246H12.0246H12.0247H12.0247H12.0248H12.0248H12.0248H12.0249H12.0249H12.025H12.025H12.0251H12.0251H12.0251H12.0252H12.0252H12.0253H12.0253H12.0253H12.0254H12.0254H12.0255H12.0255H12.0255H12.0256H12.0256H12.0257H12.0257H12.0258H12.0258H12.0258H12.0259H12.0259H12.026H12.026H12.026H12.0261H12.0261H12.0262H12.0262H12.0262H12.0263H12.0263H12.0264H12.0264H12.0265H12.0265H12.0265H12.0266H12.0266H12.0267H12.0267H12.0267H12.0268H12.0268H12.0269H12.0269H12.027H12.027H12.027H12.0271H12.0271H12.0272H12.0272H12.0272H12.0273H12.0273H12.0274H12.0274H12.0274H12.0275H12.0275H12.0276H12.0276H12.0277H12.0277H12.0277H12.0278H12.0278H12.0279H12.0279H12.0279H12.028H12.028H12.0281H12.0281H12.0281H12.0282H12.0282H12.0283H12.0283H12.0284H12.0284H12.0284H12.0285H12.0285H12.0286H12.0286H12.0286H12.0287H12.0287H12.0288H12.0288H12.0289H12.0289H12.0289H12.029H12.029H12.0291H12.0291H12.0291H12.0292H12.0292H12.0293H12.0293H12.0293H12.0294H12.0294H12.0295H12.0295H12.0296H12.0296H12.0296H12.0297H12.0297H12.0298H12.0298H12.0298H12.0299H12.0299H12.03H12.03H12.0301H12.0301H12.0301H12.0302H12.0302H12.0303H12.0303H12.0303H12.0304H12.0304H12.0305H12.0305H12.0305H12.0306H12.0306H12.0307H12.0307H12.0308H12.0308H12.0308H12.0309H12.0309H12.031H12.031H12.031H12.0311H12.0311H12.0312H12.0312H12.0313H12.0313H12.0313H12.0314H12.0314H12.0315H12.0315H12.0315H12.0316H12.0316H12.0317H12.0317H12.0317H12.0318H12.0318H12.0319H12.0319H12.032H12.032H12.032H12.0321H12.0321H12.0322H12.0322H12.0322H12.0323H12.0323H12.0324H12.0324H12.0325H12.0325H12.0325H12.0326H12.0326H12.0327H12.0327H12.0327H12.0328H12.0328H12.0329H12.0329H12.033H12.033H12.033H12.0331H12.0331H12.0332H12.0332H12.0332H12.0333H12.0333H12.0334H12.0334H12.0334H12.0335H12.0335H12.0336H12.0336H12.0337H12.0337H12.0337H12.0338H12.0338H12.0339H12.0339H12.0339H12.034H12.034H12.0341H12.0341H12.0342H12.0342H12.0342H12.0343H12.0343H12.0344H12.0344H12.0344H12.0345H12.0345H12.0346H12.0346H12.0347H12.0347H12.0347H12.0348H12.0348H12.0349H12.0349H12.0349H12.035H12.035H12.0351H12.0351H12.0352H12.0352H12.0352H12.0353H12.0353H12.0354H12.0354H12.0354H12.0355H12.0355H12.0356H12.0356H12.0357H12.0357H12.0357H12.0358H12.0358H12.0359H12.0359H12.0359H12.036H12.036H12.0361H12.0361H12.0362H12.0362H12.0362H12.0363H12.0363H12.0364H12.0364H12.0364H12.0365H12.0365H12.0366H12.0366H12.0367H12.0367H12.0367H12.0368H12.0368H12.0369H12.0369H12.0369H12.037H12.037H12.0371H12.0371H12.0372H12.0372H12.0372H12.0373H12.0373H12.0374H12.0374H12.0374H12.0375H12.0375H12.0376H12.0376H12.0377H12.0377H12.0377H12.0378H12.0378H12.0379H12.0379H12.0379H12.038H12.038H12.0381H12.0381H12.0382H12.0382H12.0382H12.0383H12.0383H12.0384H12.0384H12.0385H12.0385H12.0385H12.0386H12.0386H12.0387H12.0387H12.0387H12.0388H12.0388H12.0389H12.0389H12.039H12.039H12.039H12.0391H12.0391H12.0392H12.0392H12.0392H12.0393H12.0393H12.0394H12.0394H12.0395H12.0395H12.0395H12.0396H12.0396H12.0397H12.0397H12.0398H12.0398H12.0398H12.0399H12.0399H12.04H12.04H12.04H12.0401H12.0401H12.0402H12.0402H12.0403H12.0403H12.0403H12.0404H12.0404H12.0405H12.0405H12.0405H12.0406H12.0406H12.0407H12.0407H12.0408H12.0408H12.0408H12.0409H12.0409H12.041H12.041H12.0411H12.0411H12.0411H12.0412H12.0412H12.0413H12.0413H12.0413H12.0414H12.0414H12.0415H12.0415H12.0416H12.0416H12.0416H12.0417H12.0417H12.0418H12.0418H12.0419H12.0419H12.0419H12.042H12.042H12.0421H12.0421H12.0421H12.0422H12.0422H12.0423H12.0423H12.0424H12.0424H12.0424H12.0425H12.0425H12.0426H12.0426H12.0427H12.0427H12.0427H12.0428H12.0428H12.0429H12.0429L12.0546 21.6508C12.0549 21.6508 12.0551 21.6508 12.0554 21.6508C14.7489 21.7027 17.3055 20.7074 19.2512 18.8466L19.1475 18.7382L19.2512 18.8466C21.1931 16.9891 22.2987 14.4884 22.364 11.8052L22.3642 11.8052L22.364 11.7979C22.2985 9.11451 21.1931 6.6138 19.2512 4.75631C17.3053 2.89508 14.7502 1.89922 12.0546 1.95211L12.0536 1.95214L12.0441 1.95238L12.0347 1.95213L12.0337 1.95211C9.34078 1.90029 6.78303 2.89504 4.83727 4.75631C2.89353 6.61523 1.78796 9.11809 1.72425 11.8038L1.72418 11.8038L1.72421 11.8082C1.74118 14.5816 2.95302 17.2149 5.04995 19.0343C5.23415 19.1941 5.33936 19.4244 5.33936 19.6658V22.2231V22.4934L5.56872 22.3503L7.61479 21.0746C7.83575 20.9369 8.10285 20.9094 8.34909 20.9995Z" fill="#732E76" stroke="#FFF3EF" stroke-width="0.3"/>
<path d="M12.5738 7.99026L12.5739 7.99022C13.1007 7.58354 13.6972 7.37852 14.3507 7.37852C15.2211 7.37852 16.02 7.72624 16.6031 8.35741C17.1732 8.97478 17.4904 9.81702 17.4904 10.7327C17.4904 11.7158 17.1148 12.5325 16.4619 13.3389C15.8051 14.1502 14.8769 14.9403 13.7816 15.8719C13.4242 16.1758 13.0184 16.5208 12.593 16.8924L12.593 16.8924C12.4414 17.0248 12.2465 17.0979 12.0442 17.0979C11.842 17.0979 11.6472 17.0248 11.4954 16.8921L11.4953 16.8919C11.0732 16.5238 10.6659 16.1772 10.3072 15.8721L10.3072 15.8721C9.21185 14.9404 8.28357 14.1502 7.62675 13.3389C6.97391 12.5325 6.59824 11.7158 6.59824 10.7327C6.59824 9.81715 6.91529 8.97475 7.48538 8.35757L7.48538 8.35757C8.06851 7.72625 8.86743 7.37852 9.73794 7.37852C10.3913 7.37852 10.9878 7.58353 11.5148 7.99023L11.5148 7.99026C11.6627 8.10429 11.8026 8.23265 11.9341 8.37483L12.0442 8.49384L12.1543 8.3749C12.2858 8.23284 12.426 8.10428 12.5738 7.99026ZM11.9461 15.8925L12.0442 15.9774L12.1424 15.8925C12.4786 15.6018 12.7971 15.3308 13.0856 15.0854L13.0993 15.0737L13.0993 15.0736L13.1082 15.0661C14.1255 14.201 14.9547 13.4957 15.528 12.8268C16.1061 12.1523 16.4389 11.4978 16.4389 10.7327C16.4389 9.41635 15.5711 8.42745 14.3507 8.42745C13.9302 8.42745 13.5576 8.55719 13.2175 8.81966L13.2174 8.8197C12.907 9.05949 12.6909 9.36431 12.565 9.57454L12.565 9.57466C12.4564 9.75645 12.2564 9.86974 12.0442 9.86974C11.8321 9.86974 11.6323 9.75647 11.5237 9.57479L11.5237 9.57476C11.3978 9.36432 11.1817 9.05949 10.8712 8.8197L10.8712 8.81966C10.531 8.55719 10.1583 8.42745 9.73794 8.42745C8.51752 8.42745 7.64981 9.41635 7.64981 10.7327C7.64981 11.4978 7.98261 12.1523 8.56069 12.8268C9.13397 13.4958 9.96321 14.201 10.9806 15.0662L10.9895 15.0738L10.9895 15.0738L11.0019 15.0843C11.2916 15.3308 11.6114 15.6028 11.9461 15.8925Z" fill="#732E76" stroke="#FFF3EF" stroke-width="0.3"/>
</g>
<defs>
<clipPath id="clip0_1_1303">
<rect width="23.0008" height="23.0008" fill="white" transform="translate(0.5 0.750977)"/>
</clipPath>
</defs>
</svg>

<svg xmlns="http://www.w3.org/2000/svg" width="24" height="24" fill="none">
  <g fill="#732E76" stroke="#FFF3EF" stroke-width=".3" clip-path="url(#a)">
    <path d="M12.041.903h.006a11.106 11.106 0 0 1 7.932 3.096l.104-.108-.104.108a11.061 11.061 0 0 1 3.437 7.79v.024a11.061 11.061 0 0 1-3.437 7.79 11.101 11.101 0 0 1-7.938 3.097h-.019a11.7 11.7 0 0 1-3.87-.657l-.069-.023-.06.038-2.24 1.395a.974.974 0 0 1-.717.128.99.99 0 0 1-.778-.97V19.762l-.05-.045a10.694 10.694 0 0 1-3.566-7.913v-.016a11.06 11.06 0 0 1 3.437-7.79A11.104 11.104 0 0 1 12.041.903ZM8.35 20.999a10.65 10.65 0 0 0 3.673.652H12.056c2.694.052 5.25-.944 7.196-2.804l-.104-.109.104.109a10.02 10.02 0 0 0 3.113-7.042v-.007a10.022 10.022 0 0 0-3.113-7.042 10.058 10.058 0 0 0-7.196-2.804H12.034a10.067 10.067 0 0 0-7.197 2.804 10.019 10.019 0 0 0-3.113 7.048v.004a9.647 9.647 0 0 0 3.326 7.226c.184.16.29.39.29.632v2.827l.229-.143 2.046-1.275A.835.835 0 0 1 8.349 21Z"/>
    <path d="M12.574 7.99a2.844 2.844 0 0 1 1.777-.611c.87 0 1.669.347 2.252.978.57.618.887 1.46.887 2.376 0 .983-.375 1.8-1.028 2.606-.657.811-1.585 1.601-2.68 2.533-.358.304-.764.649-1.189 1.02a.834.834 0 0 1-1.098 0c-.422-.368-.83-.715-1.188-1.02-1.095-.932-2.023-1.722-2.68-2.533-.653-.806-1.029-1.623-1.029-2.606 0-.916.317-1.758.887-2.375a3.03 3.03 0 0 1 2.253-.98c.653 0 1.25.206 1.777.612.148.114.288.243.42.385l.11.119.11-.12c.13-.141.271-.27.419-.384Zm-.628 7.902.098.085.098-.085c.337-.29.655-.561.944-.807l.013-.011.01-.008c1.017-.865 1.846-1.57 2.419-2.24.578-.674.91-1.328.91-2.093 0-1.317-.867-2.306-2.087-2.306-.42 0-.793.13-1.134.393a2.75 2.75 0 0 0-.652.755.61.61 0 0 1-.52.295.61.61 0 0 1-.521-.295 2.747 2.747 0 0 0-.653-.755 1.8 1.8 0 0 0-1.133-.393c-1.22 0-2.088.99-2.088 2.306 0 .765.333 1.42.91 2.094.574.669 1.403 1.374 2.42 2.24l.01.007.012.01c.29.247.61.519.944.809Z"/>
  </g>
  <defs>
    <clipPath id="a">
      <path fill="#fff" d="M.5.751h23.001v23.001H.5z"/>
    </clipPath>
  </defs>
</svg>
